X: 3397
T: JOHN GRUMLIE
%R: jig
B: James Kerr "Merry Melodies" v.3 p.44 #397
Z: 2016 John Chambers <jc:trillian.mit.edu>
M: 6/8
L: 1/8
K: D
uA |\
vF2vA uA2uB | A2B d2e | f2d g2f | f3 e2A |\
F2A A2B | A2B d2e | fga gfe | d3- d2 :|
|: d |\
f2f d2d | g3 e2e | f2d g2f | f3 e2A |\
F2A A2B | A2B d2e | fga gfe | d3- d2 :|

%%sep 1 1 500
%%sep 1 1 500

